X: 2442
T: Ballinasloe Fair
R: reel
M: 4/4
K: Adorian
|:AGAB c2Bc|ABAG EFGB|AGAB cdef|gagf ecc2:|
gcc2 gcac|gcc2 Bcde|gcc2 gcac|gagf ecc2|
gcec gcac|gcc2 Bcde|gage d2cA|GAcd edcB||

